X:21
T:O the Oak and the Ash and the Bonny Ivy Tree
Z:Jack Campin, http://www.campin.me.uk/
S:Northumbrian Minstrelsy
M:C
L:1/8
K:G Minor
 D2  | G2 G A   B2  A G| A2  A B  c2
(B`A)| G2 G A   B2  A G|^F2  d>^c d2
(d`e)|=f2 d c   B2  A B| c2  A G  F2
(G`A)| B2 A G (^FG) A A| G2  d>^c d2
 d e |=f2 d c   B2  A B| c B A G  F2
(G`A)| B2 A G (^FG) A A| G2 (G^F) G2|]

